img/mastodon.svg

<?xml version="1.0" encoding="UTF-8" standalone="no"?>
<svg
   width="32px"
   height="32px"
   viewBox="0 0 32 32"
   version="1.1"
   id="svg19808"
   sodipodi:docname="mastodon.svg"
   inkscape:version="1.3.2 (091e20e, 2023-11-25, custom)"
   xmlns:inkscape="http://www.inkscape.org/namespaces/inkscape"
   xmlns:sodipodi="http://sodipodi.sourceforge.net/DTD/sodipodi-0.dtd"
   xmlns="http://www.w3.org/2000/svg"
   xmlns:svg="http://www.w3.org/2000/svg">
  <defs
     id="defs19812" />
  <sodipodi:namedview
     id="namedview19810"
     pagecolor="#ffffff"
     bordercolor="#000000"
     borderopacity="0.25"
     inkscape:showpageshadow="2"
     inkscape:pageopacity="0.0"
     inkscape:pagecheckerboard="0"
     inkscape:deskcolor="#d1d1d1"
     showgrid="false"
     inkscape:zoom="6.5390625"
     inkscape:cx="-32.038232"
     inkscape:cy="16.592593"
     inkscape:window-width="1920"
     inkscape:window-height="1027"
     inkscape:window-x="-8"
     inkscape:window-y="-8"
     inkscape:window-maximized="1"
     inkscape:current-layer="svg19808" />
  <path
     d="m 16.435217,1.9667889 c -3.569715,0.014477 -7.1141126,0.4676905 -8.9583571,1.3180166 0,0 -3.9678993,1.8062782 -3.9678993,7.9588805 0,7.323796 -0.00531,16.521235 6.5739244,18.299887 2.51966,0.677188 4.686489,0.822941 6.428504,0.722486 3.161394,-0.178457 4.725009,-1.147205 4.725009,-1.147205 l -0.106185,-2.33596 c 0,0 -2.049125,0.722117 -4.586512,0.639388 -2.513751,-0.08864 -5.16199,-0.277285 -5.574449,-3.416224 -0.03782,-0.291911 -0.05658,-0.58748 -0.0554,-0.881756 5.326505,1.322467 9.868515,0.575994 11.11889,0.424721 3.491124,-0.424278 6.530216,-2.613376 6.917856,-4.614213 0.60746,-3.15312 0.556291,-7.691124 0.556291,-7.691124 0,-6.1526023 -3.960976,-7.9588805 -3.960976,-7.9588805 -1.9447,-0.9082357 -5.540987,-1.332494 -9.110702,-1.3180166 z m -3.82017,4.692693 c 1.223045,0.032796 2.431612,0.5799827 3.176165,1.7358116 l 0.720177,1.2233772 0.71787,-1.2233772 c 1.495013,-2.3246581 4.845758,-2.1796069 6.440046,-0.3808629 1.470195,1.711289 1.142589,2.8157824 1.142589,10.4610354 v 0.0024 h -2.892251 v -6.652405 c 0,-3.1141208 -3.970207,-3.2343905 -3.970207,0.431644 v 3.854794 h -2.873784 v -3.854794 c 0,-3.6660345 -3.967899,-3.5480731 -3.967899,-0.433952 v 6.652405 H 8.2085783 c 0,-7.651163 -0.3216976,-8.762746 1.1425891,-10.4610354 C 10.154219,7.1092414 11.392001,6.626778 12.615047,6.6595738 Z"
     id="path19806"
     style="fill:#69C89B;fill-opacity:1;stroke-width:1.18183" />
</svg>

<svg width="32" height="32" viewBox="0 0 32 32" fill="none" xmlns="http://www.w3.org/2000/svg">
<g id="mastodon 1">
<path id="path19806" d="M16.4352 1.96691C12.8655 1.98139 9.3211 2.4346 7.47686 3.28493C7.47686 3.28493 3.50896 5.09121 3.50896 11.2438C3.50896 18.5676 3.50365 27.765 10.0829 29.5437C12.6025 30.2209 14.7694 30.3666 16.5114 30.2662C19.6728 30.0877 21.2364 29.119 21.2364 29.119L21.1302 26.783C21.1302 26.783 19.0811 27.5051 16.5437 27.4224C14.0299 27.3338 11.3817 27.1451 10.9692 24.0062C10.9314 23.7143 10.9127 23.4187 10.9138 23.1244C16.2404 24.4469 20.7824 23.7004 22.0327 23.5491C25.5239 23.1249 28.563 20.9358 28.9506 18.9349C29.5581 15.7818 29.5069 11.2438 29.5069 11.2438C29.5069 5.09121 25.5459 3.28493 25.5459 3.28493C23.6012 2.37669 20.0049 1.95243 16.4352 1.96691ZM12.615 6.6596C13.8381 6.6924 15.0467 7.23959 15.7912 8.39542L16.5114 9.61879L17.2293 8.39542C18.7243 6.07076 22.075 6.21581 23.6693 8.01455C25.1395 9.72584 24.8119 10.8303 24.8119 18.4756V18.478H21.9196V11.8256C21.9196 8.71146 17.9494 8.59119 17.9494 12.2572V16.112H15.0756V12.2572C15.0756 8.59119 11.1077 8.70915 11.1077 11.8233V18.4757H8.20857C8.20857 10.8245 7.88688 9.71293 9.35116 8.01464C10.1542 7.10936 11.392 6.62681 12.615 6.6596Z" fill="url(#paint0_linear_18_31)"/>
</g>
<defs>
<linearGradient id="paint0_linear_18_31" x1="16.5085" y1="1.96655" x2="16.5085" y2="30.2948" gradientUnits="userSpaceOnUse">
<stop stop-color="#3B9B6E"/>
<stop offset="0.0001" stop-color="#3B9B6D"/>
<stop offset="1" stop-color="#417B5F"/>
</linearGradient>
</defs>
</svg>
